X:149
T:Uitime estampie real, La
C:Anonyme
O:XIIIe siècle
M:6/8
K:F
c | c2d c2B/A/ | G3G2z | GALG FALB | A/G/AB A2c | c2d c2B/A/ | G3G2z | GALG FG2 | F/E/F2 F2|| c | 
cGc c/"(B=)"B/c"(B=)"B/A/ | GA"(B=)"B c2z | cd_e dcB/A/ | G3F2z | GALG FALB | A/G/AB A2c | 
cGc c/"(B=)"B/c"(B=)"B/A/ | GA"(B=)"B c2z | cd_e dcB/A/ | G3F2z | GALG FG2 | F/E/F2 F2||A |
A2B/A/ G2F/E/ | F3F2z | GA=B c2G | c/"(B=)"B/cd c2z | GALG FALB | A/G/AB A2A | 
A2B/A/ G2F/E/ | F3F2z | GA=B c2G | c/"(B=)"B/cd c2z | GALG FG2 | F/E/F2 F2||F | 
E/D/EC E2LF | G3G2z | GAB A/G/AF | E3E2z | GALG FALB | A/G/AB A2F | 
E/D/EC E2LF | G3G2z | GAB A/G/AF | E3E2z | GA2 FG2 | F/E/F2F2 || e |
f2e/d/ c2B/A/ | B2Lc B2z | cd_e dc/B/A/B/ | c3c2z | GA2FA2 | A/G/AB A2e |
f2e/d/ c2B/A/ | B2Lc B2z | cd_e dc/B/A/B/ | c3c2z | GA2 FG2 | F/E/F2F2 |]




%%header "$P0	 $IR 	$P1"
%%footer $D - Éditions Galouvielle - 2009 - À usage librement privé dans le cadre familial

